svgs/tagwriter.svg

<svg width="192" height="192" viewBox="0 0 192 192" fill="none" xmlns="http://www.w3.org/2000/svg">
<path d="M141.75 79.0271L158.519 101.169M141.75 79.0271L85.3649 121.303C84.701 121.801 84.1441 122.426 83.7271 123.141L73.7825 140.203C71.0222 144.939 75.3461 150.648 80.6828 149.312L99.9069 144.505C100.713 144.303 101.47 143.943 102.134 143.445L158.519 101.169M141.75 79.0271L147.58 74.6325C150.439 72.4885 154.129 71.3748 157.955 71.9098C165.607 72.9798 170.937 80.0187 169.862 87.6321C169.324 91.4388 167.232 94.6604 164.372 96.8044L158.519 101.169M123.679 65.3001V56.8094C123.679 52.7715 121.658 49.0029 118.3 46.775L83.9604 23.9972C79.9459 21.3343 74.7328 21.3343 70.7182 23.9972L36.3789 46.775C33.0202 49.0029 31 52.7715 31 56.8094V157.968C31 164.613 36.3726 170 43 170H111.679C118.306 170 123.679 164.613 123.679 157.968V155.043" stroke="#000" stroke-width="12" stroke-linecap="round" stroke-linejoin="round"/>
</svg>

<svg xmlns="http://www.w3.org/2000/svg" width="192" height="192" fill="none"><path stroke="#000" stroke-linecap="round" stroke-linejoin="round" stroke-width="12" d="m141.75 79.027 16.769 22.142M141.75 79.027l-56.385 42.276a6.2 6.2 0 0 0-1.638 1.838l-9.945 17.062c-2.76 4.736 1.564 10.445 6.9 9.109l19.225-4.807a6.2 6.2 0 0 0 2.227-1.06l56.385-42.276M141.75 79.027l5.83-4.395c2.859-2.144 6.549-3.257 10.375-2.722 7.652 1.07 12.982 8.109 11.907 15.722-.538 3.807-2.63 7.028-5.49 9.172l-5.853 4.365M123.679 65.3v-8.49c0-4.038-2.021-7.807-5.379-10.035L83.96 23.997a11.97 11.97 0 0 0-13.242 0l-34.34 22.778A12.04 12.04 0 0 0 31 56.809v101.159C31 164.613 36.373 170 43 170h68.679c6.627 0 12-5.387 12-12.032v-2.925"/></svg>
